web/packages/design/src/ResourceIcon/assets/ibm-light.svg

<svg width="72" height="72" viewBox="0 0 72 72" fill="none" xmlns="http://www.w3.org/2000/svg">
<path fill-rule="evenodd" clip-rule="evenodd" d="M72 47.6497V49.5532H62.5263V47.6497H72ZM49.2632 47.6497V49.5532H39.7895V47.6497H49.2632ZM56.6547 47.6497L55.8926 49.5532L55.1405 47.6497H56.6547ZM35.4316 47.6497C34.0723 48.8318 32.2795 49.5532 30.2779 49.5532H15.1579V47.6497H35.4316ZM13.2632 47.6497V49.5532H0V47.6497H13.2632ZM49.2632 43.8428V45.7463H39.7895V43.8428H49.2632ZM58.1361 43.8428L57.3986 45.7463H54.3988L53.6557 43.8428H58.1361ZM37.3263 43.8428C37.1553 44.5196 36.8821 45.1586 36.5305 45.7463H15.1579V43.8428H37.3263ZM13.2632 43.8428V45.7463H0V43.8428H13.2632ZM72 43.8428V45.7463H62.5263V43.8428H72ZM68.2105 40.0359V41.9394H62.5263V40.0359H68.2105ZM49.2632 40.0359V41.9394H43.5789V40.0359H49.2632ZM59.6225 40.0359L58.8781 41.9394H52.9118L52.1615 40.0359H59.6225ZM37.0611 40.0359C37.2313 40.6428 37.3263 41.2803 37.3263 41.9394H30.3158V40.0359H37.0611ZM24.6316 40.0359V41.9394H18.9474V40.0359H24.6316ZM9.47368 40.0359V41.9394H3.78947V40.0359H9.47368ZM68.2105 36.2291V38.1325H62.5263V36.2291H68.2105ZM49.2632 36.2291V38.1325H43.5789V36.2291H49.2632ZM61.1072 36.2291L60.3664 38.1325H51.4042L50.6691 36.2291H61.1072ZM34.7305 36.2291C35.384 36.7663 35.9467 37.4102 36.3789 38.1325H18.9474V36.2291H34.7305ZM9.47368 36.2291V38.1325H3.78947V36.2291H9.47368ZM55.364 32.4222L55.8947 33.9607L56.4251 32.4222H68.2105V34.3256H62.5263V32.5765L61.8821 34.3256H49.8884L49.2632 32.5763V34.3256H43.5789V32.4222H55.364ZM9.47368 32.4222V34.3256H3.78947V32.4222H9.47368ZM36.3789 32.4222C35.9467 33.1444 35.384 33.7881 34.7305 34.3256H18.9474V32.4222H36.3789ZM68.2105 28.6153V30.5187H57.0825L57.7532 28.6153H68.2105ZM54.0426 28.6153L54.7133 30.5187H43.5789V28.6153H54.0426ZM37.3263 28.6153C37.3263 29.2742 37.2313 29.9117 37.0611 30.5187H30.3158V28.6153H37.3263ZM24.6316 28.6153V30.5187H18.9474V28.6153H24.6316ZM9.47368 28.6153V30.5187H3.78947V28.6153H9.47368ZM52.7306 24.8084L53.3891 26.7118H39.7897L39.7895 24.8084H52.7306ZM72 24.8084V26.7118H58.3933L59.0777 24.8084H72ZM36.5305 24.8084C36.8821 25.396 37.1553 26.035 37.3263 26.7118H15.1579V24.8084H36.5305ZM13.2632 24.8084V26.7118H0V24.8084H13.2632ZM51.4001 21.0015L52.0712 22.9049H39.7897L39.7895 21.0015H51.4001ZM72 21.0015V22.9049H59.7337L60.389 21.0015H72ZM30.2779 21.0015C32.2649 21.0015 34.0725 21.7229 35.4316 22.9049H15.1579V21.0015H30.2779ZM13.2632 21.0015V22.9049H0V21.0015H13.2632Z" fill="black"/>
</svg>

<svg xmlns="http://www.w3.org/2000/svg" width="72" height="72" fill="none" viewBox="0 0 72 72"><path fill="#000" fill-rule="evenodd" d="M72 47.65v1.903h-9.474V47.65zm-22.737 0v1.903H39.79V47.65zm7.392 0-.762 1.903-.752-1.903zm-21.223 0a7.8 7.8 0 0 1-5.154 1.903h-15.12V47.65zm-22.169 0v1.903H0V47.65zm36-3.807v1.903H39.79v-1.903zm8.873 0-.737 1.903h-3l-.743-1.903zm-20.81 0a7.1 7.1 0 0 1-.795 1.903H15.158v-1.903zm-24.063 0v1.903H0v-1.903zm58.737 0v1.903h-9.474v-1.903zm-3.79-3.807v1.903h-5.684v-1.903zm-18.947 0v1.903H43.58v-1.903zm10.36 0-.745 1.903h-5.966l-.75-1.903zm-22.562 0c.17.607.265 1.244.265 1.903h-7.01v-1.903zm-12.43 0v1.903h-5.684v-1.903zm-15.157 0v1.903H3.789v-1.903zm58.736-3.807v1.904h-5.684v-1.904zm-18.947 0v1.904H43.58v-1.904zm11.844 0-.74 1.904h-8.963l-.735-1.904zm-26.376 0a7.4 7.4 0 0 1 1.648 1.904H18.947v-1.904zm-25.257 0v1.904H3.789v-1.904zm45.89-3.807.53 1.539.531-1.539H68.21v1.904h-5.684v-1.75l-.644 1.75H49.888l-.625-1.75v1.75H43.58v-1.904zm-45.89 0v1.904H3.789v-1.904zm26.905 0a7.4 7.4 0 0 1-1.648 1.904H18.947v-1.904zm31.832-3.807v1.904H57.082l.67-1.904zm-14.168 0 .67 1.904H43.58v-1.904zm-16.717 0c0 .66-.095 1.297-.265 1.904h-6.745v-1.904zm-12.694 0v1.904h-5.685v-1.904zm-15.158 0v1.904H3.789v-1.904zm43.257-3.807.658 1.904h-13.6v-1.904zm19.269 0v1.904H58.393l.685-1.904zm-35.47 0c.352.588.625 1.227.796 1.904H15.158v-1.904zm-23.267 0v1.904H0v-1.904zM51.4 21.002l.671 1.903H39.79V21zm20.6 0v1.903H59.734L60.389 21zm-41.722 0a7.83 7.83 0 0 1 5.154 1.903H15.158V21zm-17.015 0v1.903H0V21z" clip-rule="evenodd"/></svg>
